io/logo-npm.svg

<svg data-name="Layer 1" xmlns="http://www.w3.org/2000/svg" viewBox="0 0 512 512" height="1em" width="1em">
  <path d="M227.6 213.1H256v57.1h-28.4z"/>
  <path d="M0 156v171.4h142.2V356H256v-28.6h256V156Zm142.2 142.9h-28.4v-85.7H85.3v85.7H28.4V184.6h113.8Zm142.2 0h-56.9v28.6h-56.9V184.6h113.8Zm199.2 0h-28.4v-85.7h-28.4v85.7h-28.4v-85.7H370v85.7h-56.9V184.6h170.7v114.3Z"/>
</svg>

<svg data-name="Layer 1" xmlns="http://www.w3.org/2000/svg" viewBox="0 0 512 512" height="1em" width="1em">
  <rect x="227.6" y="213.1" width="28.4" height="57.1"/>
  <path d="M0,156V327.4H142.2V356H256V327.4H512V156ZM142.2,298.9H113.8V213.2H85.3v85.7H28.4V184.6H142.2Zm142.2,0H227.5v28.6H170.6V184.6H284.4Zm199.2,0H455.2V213.2H426.8v85.7H398.4V213.2H370v85.7H313.1V184.6H483.8V298.9Z"/>
</svg>
